X:15507
T:Sirto # 1
O:Greece
M:4/4
K:Dm
|:A2BAGBAG|FEFGAGFE|D^CDEFEFG|ABBAA^GA2|
A2BAGBAG|FEFGAGFE|D^CDEFGAD|AGFED4:|
|:D^CDEFED2|EFED^CB,A,2|D^CDEFED2|EFGA(3BA^GA2|
D^CDEF2G2|A2B2B4|ABAGFED^C|DFAFD4:|
|:d4A4|BcBAG4|A4E4|FGFED4|
E2DEF2EF|G2FGA4|GBAGAG(3FED|E2F/2E/2D/2^C/2D4:|
|:D^CDEFED2|EFED^CB,A,2|D^CDEFED2|EFGA(3BA^GA2|
D^CDEF2G2|A2B2B4|ABAGFED^C|DFAFD4:|
